public/imgs/Footer/Social/ic-linkedin.svg

<svg width="33" height="32" viewBox="0 0 33 32" fill="none" xmlns="http://www.w3.org/2000/svg">
<path d="M20.334 10.666C22.4557 10.666 24.4905 11.5089 25.9908 13.0092C27.4911 14.5095 28.334 16.5443 28.334 18.666V27.9993H23.0007V18.666C23.0007 17.9588 22.7197 17.2805 22.2196 16.7804C21.7195 16.2803 21.0412 15.9993 20.334 15.9993C19.6267 15.9993 18.9485 16.2803 18.4484 16.7804C17.9483 17.2805 17.6673 17.9588 17.6673 18.666V27.9993H12.334V18.666C12.334 16.5443 13.1768 14.5095 14.6771 13.0092C16.1774 11.5089 18.2123 10.666 20.334 10.666Z" fill="#C0C4D7"/>
<path d="M6.99935 12H1.66602V28H6.99935V12Z" fill="#C0C4D7"/>
<path d="M4.33268 7.99935C5.80544 7.99935 6.99935 6.80544 6.99935 5.33268C6.99935 3.85992 5.80544 2.66602 4.33268 2.66602C2.85992 2.66602 1.66602 3.85992 1.66602 5.33268C1.66602 6.80544 2.85992 7.99935 4.33268 7.99935Z" fill="#C0C4D7"/>
</svg>

<svg xmlns="http://www.w3.org/2000/svg" width="33" height="32" fill="none"><path fill="#C0C4D7" d="M20.334 10.666a8 8 0 0 1 8 8v9.333h-5.333v-9.333a2.667 2.667 0 0 0-5.334 0v9.333h-5.333v-9.333a8 8 0 0 1 8-8ZM7 12H1.665v16h5.333V12ZM4.333 8a2.667 2.667 0 1 0 0-5.334 2.667 2.667 0 0 0 0 5.333Z"/></svg>
